X: 15502
T: Glenquey
R: reel
M: 4/4
K: Dmajor
F|D/D/D (AF) ADDF|D/D/D (AF) BEEF|D/D/D (AB) defe|dBAF ADD:|
f|defg abaf|gefd eB ~B2|defg abaf|geag fdde|
defg abaf|gefd eB ~B2|dfeg fagb|afge fdd||

